assets/images/shield.svg

<svg xmlns="http://www.w3.org/2000/svg" viewBox="0 0 36 37" version="1">
  <g style="fill:none;stroke-linecap:round;stroke-width:3;stroke:#B1A45D">
    <path d="m31.5 21v1.9c0 2.6-1.5 5.1-3.9 6.4l-9.6 5.2-9.6-5.2c-2.4-1.3-3.9-3.7-3.9-6.4v-19.6c4.5-1.2 9-1.8 13.5-1.8s9 0.6 13.5 1.8v11.7m-6.2-6.8l-14 15.2"/>
  </g>
</svg>

<svg width="36" height="37" viewBox="0 0 36 37" fill="none" xmlns="http://www.w3.org/2000/svg">
<path d="M31.5 21V22.9C31.5 25.5 30 28 27.6 29.3L18 34.5L8.4 29.3C6 28 4.5 25.6 4.5 22.9V3.3C9 2.1 13.5 1.5 18 1.5C22.5 1.5 27 2.1 31.5 3.3V15M25.3 8.2L11.3 23.4" stroke="#008A9B" stroke-width="3" stroke-linecap="round"/>
</svg>
